X:390
T: DER DEUTSCH-FRANZOS BEKLAGT SICH SEHR
N: E0311
O: Europa, Mitteleuropa, Deutschland
R: historisches Lied, Spott - Lied
M: 4/4
L: 1/4
K: F
A | GFGA | BAG
A | GFEF | G2F
A | GFGA | BAG
A | GFEF | G2F
F | GABA | GFG
A | GFEF | G2F
F | DEFF | GAF
A | GFEF | G2F

